X: 8811
T: Cuigiu Lasses, The
R: jig
M: 6/8
K: Gmajor
|:BAB G2D|EDE GED|D2D DEG|A2A AGE|
BAB G2D|EDE GED|D2D DEG|ABA G2A:|
|:BAB dBd|ede fgg|ABB AGE|EAA AGE|
BAB dBd|ede fgg|ABB AGE|EFD G2A:|

